archdroid-icon-theme/Archdroid-Green/apps/scalable/ejector.svg

<?xml version="1.0" encoding="UTF-8" standalone="no"?>
<svg
   xmlns:dc="http://purl.org/dc/elements/1.1/"
   xmlns:cc="http://creativecommons.org/ns#"
   xmlns:rdf="http://www.w3.org/1999/02/22-rdf-syntax-ns#"
   xmlns:svg="http://www.w3.org/2000/svg"
   xmlns="http://www.w3.org/2000/svg"
   xmlns:sodipodi="http://sodipodi.sourceforge.net/DTD/sodipodi-0.dtd"
   xmlns:inkscape="http://www.inkscape.org/namespaces/inkscape"
   width="48"
   height="48"
   viewBox="0 0 48 48"
   id="svg2"
   version="1.1"
   inkscape:version="0.91 r13725"
   sodipodi:docname="ejector.svg"
   style="fill:#4CAF50">
  <metadata
     id="metadata10">
    <rdf:RDF>
      <cc:Work
         rdf:about="">
        <dc:format>image/svg+xml</dc:format>
        <dc:type
           rdf:resource="http://purl.org/dc/dcmitype/StillImage" />
        <dc:title />
      </cc:Work>
    </rdf:RDF>
  </metadata>
  <defs
     id="defs8" />
  <sodipodi:namedview
     pagecolor="#ffffff"
     bordercolor="#666666"
     borderopacity="1"
     objecttolerance="10"
     gridtolerance="10"
     guidetolerance="10"
     inkscape:pageopacity="0"
     inkscape:pageshadow="2"
     inkscape:window-width="1366"
     inkscape:window-height="713"
     id="namedview6"
     showgrid="false"
     inkscape:snap-bbox="true"
     inkscape:bbox-nodes="true"
     inkscape:snap-bbox-edge-midpoints="false"
     inkscape:snap-bbox-midpoints="true"
     inkscape:snap-object-midpoints="true"
     inkscape:zoom="34.95663480842233"
     inkscape:cx="6.526038326694023"
     inkscape:cy="9.922692558402559"
     inkscape:window-x="0"
     inkscape:window-y="30"
     inkscape:window-maximized="1"
     inkscape:current-layer="svg2"
     fit-margin-top="0"
     fit-margin-left="0"
     fit-margin-right="0"
     fit-margin-bottom="0" />
  <path
     style="fill:#4CAF50"
     d="M 10,6 C 7.789999999999992,6 6,7.79 6,10 l 0,28 c 0,2.21 1.789999999999992,4 4,4 l 28,0 c 2.21,0 4,-1.78999999999998 4,-4 L 42,10 C 42,7.790000000000001 40.21,6.000000000000001 38,6 L 10,6 Z m 13.96875,10 a 0.7006109064407048,0.4985007402904019 0 0 1 0.640625,0.25390625 l 7.294921875,8.998046875 a 0.7006109064407048,0.4985007402904019 0 0 1 -0.609375,0.75 l -14.591796875,0 A 0.7006109064407048,0.4985007402904019 0 0 1 16,25.486328125 a 0.7006109064407048,0.4985007402904019 0 0 1 0.09375,-0.234375 l 7.296875,-8.998046875 a 0.7006109064407048,0.4985007402904019 0 0 1 0.515625,-0.25 A 0.7006109064407048,0.4985007402904019 0 0 1 23.96875,16 Z M 17,28.001953125 l 13.998046875,0 c 0.55392347218129,0 1,0.44419718603774 1,0.998046875 l 0,2 c 1e-14,0.55384968896228 -0.4460765278187,1 -1,1 L 17,32 c -0.55392347218124,0 -1,-0.44615031103772 -1,-1 l 0,-2 c 0,-0.55384968896228 0.44607652781873,-0.998046875 1,-0.998046875 z"
     id="path4160"
     inkscape:connector-curvature="0" />
</svg>

<svg xmlns="http://www.w3.org/2000/svg" viewBox="0 0 48 48" fill="#4CAF50"><path d="m10 6c-2.21 0-4 1.79-4 4v28c0 2.21 1.79 4 4 4h28c2.21 0 4-1.79 4-4v-28c0-2.21-1.79-4-4-4h-28m13.96875 10a.700611 .498501 0 0 1 .640625 .253906l7.295 8.998a.700611 .498501 0 0 1 -.609375 .75h-14.592a.700611 .498501 0 0 1 -.703125 -.515625 .700611 .498501 0 0 1 .09375 -.234375l7.297-8.998a.700611 .498501 0 0 1 .515625 -.25 .700611 .498501 0 0 1 .0625 -.003906m-6.969 12h13.998c.554 0 1 .444 1 .998v2c0 .554-.446 1-1 1h-13.998c-.554 0-1-.446-1-1v-2c0-.554.446-.998 1-.998z"/></svg>
